X:481
T:The harvest home
R:Hornpipe
O:Ireland, Scotland, England
S:Richard Robinson
B:O'Neill's
Z:Transcription:Richard Robinson(?), Chords:Mike Long
M:4/4
L:1/8
K:D
AF|\
"D"DAFA DAFA|defe "(G)"dcBA|"A"eAfA "(G)"gAfA|\
"A"(3(efe) (3(dcB) (3(ABA) (3(GFE)|"D"DAFA DAFA|
defe "(G)"dcBA|"A"eAfA gece|"D/G"d2dc "D"d2:|\
|:cd|\
"A"eA ~A2 fA ~A2|"(G)"gAfA "A"eA ~A2|eAfA "(G)"gAfA|
"A"(3(efe) (3(dcB) (3(ABA) (3(GFE)|\
"D"DAFA DAFA|defe "(G)"dcBA|"A"eAfA gece|"D/G"d2dc "D"d2:|
